mobile/24/svg/shield-24.svg

<svg width="24" height="24" fill="none" xmlns="http://www.w3.org/2000/svg"><path d="M12 22a3 3 0 0 1-1.46-.38c-2.08-1.16-3.99-2.96-5.39-5.08-.71-1.08-1.21-2.38-1.49-3.89L2.95 8.8c-.24-1.28.38-2.56 1.52-3.18l6.02-3.26a3 3 0 0 1 2.85 0l6.17 3.32c1.15.62 1.77 1.9 1.53 3.19l-.71 3.79c-.28 1.5-.78 2.8-1.48 3.87-1.4 2.12-3.31 3.92-5.39 5.09-.45.25-.96.38-1.46.38zm-.08-18.25c-.2 0-.41.05-.59.15L5.31 7.16c-.48.26-.73.79-.63 1.33l.71 3.85c.23 1.27.65 2.36 1.23 3.24 1.24 1.88 2.94 3.49 4.78 4.52.38.21.84.21 1.22 0 1.84-1.03 3.54-2.63 4.78-4.52.58-.88.99-1.96 1.22-3.23l.71-3.79c.1-.54-.16-1.07-.64-1.33l-6.17-3.32c-.19-.1-.39-.15-.59-.15l-.01-.01z" fill="#000"/></svg>

<svg width="24" height="24" viewBox="0 0 24 24" fill="none" xmlns="http://www.w3.org/2000/svg">
<path d="M12 22C11.49 22 10.99 21.87 10.54 21.62C8.46 20.46 6.55 18.66 5.15 16.54C4.44 15.46 3.94 14.16 3.66 12.65L2.95 8.8C2.71 7.52 3.33 6.24 4.47 5.62L10.49 2.36C11.38 1.88 12.45 1.88 13.34 2.36L19.51 5.68C20.66 6.3 21.28 7.58 21.04 8.87L20.33 12.66C20.05 14.16 19.55 15.46 18.85 16.53C17.45 18.65 15.54 20.45 13.46 21.62C13.01 21.87 12.5 22 12 22V22ZM11.92 3.75C11.72 3.75 11.51 3.8 11.33 3.9L5.31 7.16C4.83 7.42 4.58 7.95 4.68 8.49L5.39 12.34C5.62 13.61 6.04 14.7 6.62 15.58C7.86 17.46 9.56 19.07 11.4 20.1C11.78 20.31 12.24 20.31 12.62 20.1C14.46 19.07 16.16 17.47 17.4 15.58C17.98 14.7 18.39 13.62 18.62 12.35L19.33 8.56C19.43 8.02 19.17 7.49 18.69 7.23L12.52 3.91C12.33 3.81 12.13 3.76 11.93 3.76L11.92 3.75Z" fill="black"/>
</svg>
